svgs/sharp-solid/deer-rudolph.svg

<svg xmlns="http://www.w3.org/2000/svg" viewBox="0 0 576 512"><!--! Font Awesome Pro 6.6.0 by @fontawesome - https://fontawesome.com License - https://fontawesome.com/license (Commercial License) Copyright 2024 Fonticons, Inc. --><path d="M256 16l0-16L224 0l0 16 0 24c0 30.9 25.1 56 56 56l16 0 24 0-64 16 0 32 56 0-9.6 32L224 176l-96 0-14.1 0-7.9 0C51.7 176 6.6 217.8 2.4 272L.1 302.2l-1.8 23.9 47.9 3.7 1.8-23.3c2.4 3.3 5.2 6.5 8.1 9.5L72.1 332 46.1 358.1 24.7 379.4 34.7 408 71.5 512l101.8 0L135.3 404.6l26.6-26.6L176 363.9l0-19.9 0-3.4L240 368l48 0 0 144 96 0 0-144 0-64 26.7-80 5.3 0 96 0 0-48.8c2.6 .5 5.3 .8 8 .8c22.1 0 40-17.9 40-40s-17.9-40-40-40c-19.6 0-35.9 14.1-39.3 32.7L443.4 91.4c-.6-.6-1.1-1.1-1.7-1.6C459.7 80.4 472 61.7 472 40l0-24 0-16L440 0l0 16 0 24c0 13.3-10.7 24-24 24l-38.8 0-30.6 0c3.5-7.3 5.4-15.4 5.4-24l0-24 0-16L320 0l0 16 0 24c0 13.3-10.7 24-24 24l-16 0c-13.3 0-24-10.7-24-24l0-24zM384 144a16 16 0 1 1 32 0 16 16 0 1 1 -32 0z"/></svg>

<svg xmlns="http://www.w3.org/2000/svg" viewBox="0 0 576 512"><!--! Font Awesome Pro 6.4.2 by @fontawesome - https://fontawesome.com License - https://fontawesome.com/license (Commercial License) Copyright 2023 Fonticons, Inc. --><path d="M256 16V0H224V16 40c0 30.9 25.1 56 56 56h16 24l-64 16v32h56l-9.6 32H224 128 113.9h-7.9C51.7 176 6.6 217.8 2.4 272L.1 302.2l-1.8 23.9 47.9 3.7 1.8-23.3c2.4 3.3 5.2 6.5 8.1 9.5L72.1 332 46.1 358.1 24.7 379.4 34.7 408 71.5 512H173.3L135.3 404.6l26.6-26.6L176 363.9V344v-3.4L240 368h48V512h96V368 304l26.7-80H416h96V175.2c2.6 .5 5.3 .8 8 .8c22.1 0 40-17.9 40-40s-17.9-40-40-40c-19.6 0-35.9 14.1-39.3 32.7L443.4 91.4c-.6-.6-1.1-1.1-1.7-1.6C459.7 80.4 472 61.7 472 40V16 0H440V16 40c0 13.3-10.7 24-24 24H377.3 346.6c3.5-7.3 5.4-15.4 5.4-24V16 0H320V16 40c0 13.3-10.7 24-24 24H280c-13.3 0-24-10.7-24-24V16zM384 144a16 16 0 1 1 32 0 16 16 0 1 1 -32 0z"/></svg>
